public/assets/standards/sci-ai/explore-feat-icon-1.svg

<svg width="55" height="55" viewBox="0 0 55 55" fill="none" xmlns="http://www.w3.org/2000/svg">
<g clip-path="url(#clip0_80_7828)">
<path d="M48.87 53.2299C48.76 53.1199 48.61 53.0499 48.45 53.0299C45.95 52.7799 43.99 50.61 43.99 48.09L44.03 15.45C44.03 11.04 40.44 7.44995 36.03 7.44995H1.22996C0.949965 7.44995 0.719965 7.62995 0.609965 7.88995C0.499965 8.14995 0.579965 8.45995 0.769965 8.65995C0.879965 8.76995 1.02997 8.83995 1.18997 8.85995C3.48996 9.10995 5.33996 10.96 5.58996 13.19L5.63996 46.4399C5.63996 50.8499 9.22997 54.4399 13.64 54.4399H48.4C48.68 54.4399 48.92 54.2599 49.02 54C49.13 53.74 49.05 53.43 48.86 53.2299H48.87Z" fill="#006D68"/>
<path d="M48.4 54.9999H13.64C8.92 54.9999 5.08 51.1599 5.07 46.4399L5.02 13.1899C4.81 11.2799 3.13 9.63989 1.12 9.41989C0.829999 9.38989 0.569999 9.25989 0.369999 9.05989C0.0099991 8.68989 -0.110001 8.13989 0.0899991 7.67989C0.289999 7.19989 0.739999 6.88989 1.23 6.88989H36.01C40.73 6.88989 44.58 10.7299 44.58 15.4599L44.55 48.0999C44.55 50.3299 46.29 52.2499 48.51 52.4799C48.8 52.5099 49.07 52.6399 49.27 52.8399C49.63 53.1999 49.74 53.7499 49.55 54.2199C49.35 54.6999 48.9 55.0099 48.41 55.0099L48.4 54.9999ZM1.23 8.01989C1.23 8.01989 1.15 8.06989 1.13 8.11989C1.11 8.15989 1.13 8.22989 1.18 8.27989C3.82 8.58989 5.87 10.6199 6.15 13.1399L6.2 46.4499C6.2 50.5499 9.54 53.8899 13.64 53.8899H48.4C48.4 53.8899 48.49 53.8399 48.51 53.7999C48.53 53.7599 48.51 53.6899 48.47 53.6499C48.47 53.6499 48.42 53.6099 48.39 53.6099C45.6 53.3299 43.42 50.9099 43.42 48.1099L43.45 15.4699C43.45 11.3699 40.11 8.02989 36.01 8.02989H1.23V8.01989Z" fill="#006D68"/>
<path d="M54.2199 46.3501C54.0999 46.2301 53.9399 46.1501 53.7699 46.1401C51.2899 45.8901 49.3499 43.7401 49.3399 41.2501L49.3799 8.61006C49.3799 4.17006 45.7699 0.560059 41.3299 0.560059H6.54995C6.24995 0.560059 5.99995 0.760059 5.88995 1.03006C5.77995 1.30006 5.85995 1.64006 6.05995 1.85006C6.17995 1.97006 6.32995 2.04006 6.49995 2.06006C8.77995 2.31006 10.6199 4.14006 10.8599 6.34006L10.9099 39.5901C10.9099 44.0201 14.5199 47.6301 18.9599 47.6301H53.7199C54.0199 47.6301 54.2699 47.4401 54.3799 47.1601C54.4899 46.8901 54.4199 46.5601 54.2099 46.3501H54.2199Z" fill="#A5C352"/>
<path d="M53.7199 48.19H18.9599C14.2199 48.19 10.3499 44.33 10.3499 39.59L10.2999 6.34C10.0899 4.45 8.42993 2.83 6.43993 2.61C6.13993 2.58 5.86993 2.45 5.65993 2.23C5.28993 1.85 5.16993 1.28 5.36993 0.8C5.57993 0.32 6.03993 0 6.54993 0H41.3299C46.0799 0 49.9399 3.86 49.9399 8.61L49.8999 41.25C49.8999 43.46 51.6199 45.36 53.8199 45.58C54.1199 45.61 54.3999 45.74 54.6099 45.96C54.9799 46.33 55.0999 46.91 54.8999 47.38C54.6899 47.87 54.2299 48.19 53.7199 48.19ZM6.54993 1.12C6.48993 1.12 6.42993 1.18 6.40993 1.24C6.38993 1.3 6.40993 1.39 6.45993 1.45C6.48993 1.48 6.51993 1.49 6.55993 1.5C9.09993 1.77 11.1399 3.78 11.4099 6.28L11.4599 39.59C11.4599 43.72 14.8199 47.07 18.9499 47.07H53.7099C53.7799 47.07 53.8299 47 53.8599 46.95C53.8799 46.89 53.8599 46.8 53.8099 46.75C53.8099 46.75 53.7499 46.7 53.7099 46.7C50.9499 46.42 48.7799 44.03 48.7799 41.25L48.8199 8.61C48.8199 4.48 45.4599 1.12 41.3299 1.12H6.54993Z" fill="#A5C352"/>
<path d="M46.73 24.1C46.73 24.1 39.3 34.69 30.14 34.69C20.98 34.69 13.55 24.1 13.55 24.1C13.55 24.1 20.98 13.51 30.14 13.51C39.3 13.51 46.73 24.1 46.73 24.1Z" fill="white"/>
<path d="M30.1401 29.8199C33.3544 29.8199 35.9601 27.2142 35.9601 23.9999C35.9601 20.7856 33.3544 18.1799 30.1401 18.1799C26.9258 18.1799 24.3201 20.7856 24.3201 23.9999C24.3201 27.2142 26.9258 29.8199 30.1401 29.8199Z" fill="#006D68"/>
</g>
<defs>
<clipPath id="clip0_80_7828">
<rect width="55" height="55" fill="white"/>
</clipPath>
</defs>
</svg>

<svg xmlns="http://www.w3.org/2000/svg" width="55" height="55" fill="none" viewBox="0 0 55 55"><g clip-path="url(#a)"><path fill="#006d68" d="M48.87 53.23a.72.72 0 0 0-.42-.2c-2.5-.25-4.46-2.42-4.46-4.94l.04-32.64c0-4.41-3.59-8-8-8H1.23c-.28 0-.51.18-.62.44s-.03.57.16.77c.11.11.26.18.42.2 2.3.25 4.15 2.1 4.4 4.33l.05 33.25c0 4.41 3.59 8 8 8H48.4c.28 0 .52-.18.62-.44.11-.26.03-.57-.16-.77z"/><path fill="#006d68" d="M48.4 55H13.64c-4.72 0-8.56-3.84-8.57-8.56l-.05-33.25c-.21-1.91-1.89-3.55-3.9-3.77-.29-.03-.55-.16-.75-.36-.36-.37-.48-.92-.28-1.38.2-.48.65-.79 1.14-.79h34.78c4.72 0 8.57 3.84 8.57 8.57l-.03 32.64c0 2.23 1.74 4.15 3.96 4.38.29.03.56.16.76.36.36.36.47.91.28 1.38-.2.48-.65.79-1.14.79zM1.23 8.02s-.08.05-.1.1c-.02.04 0 .11.05.16 2.64.31 4.69 2.34 4.97 4.86l.05 33.31c0 4.1 3.34 7.44 7.44 7.44H48.4s.09-.05.11-.09 0-.11-.04-.15c0 0-.05-.04-.08-.04-2.79-.28-4.97-2.7-4.97-5.5l.03-32.64c0-4.1-3.34-7.44-7.44-7.44H1.23z"/><path fill="#a5c352" d="M54.22 46.35a.7.7 0 0 0-.45-.21c-2.48-.25-4.42-2.4-4.43-4.89l.04-32.64c0-4.44-3.61-8.05-8.05-8.05H6.55c-.3 0-.55.2-.66.47s-.03.61.17.82c.12.12.27.19.44.21 2.28.25 4.12 2.08 4.36 4.28l.05 33.25c0 4.43 3.61 8.04 8.05 8.04h34.76c.3 0 .55-.19.66-.47.11-.27.04-.6-.17-.81z"/><path fill="#a5c352" d="M53.72 48.19H18.96c-4.74 0-8.61-3.86-8.61-8.6L10.3 6.34c-.21-1.89-1.87-3.51-3.86-3.73-.3-.03-.57-.16-.78-.38-.37-.38-.49-.95-.29-1.43.21-.48.67-.8 1.18-.8h34.78c4.75 0 8.61 3.86 8.61 8.61l-.04 32.64c0 2.21 1.72 4.11 3.92 4.33.3.03.58.16.79.38.37.37.49.95.29 1.42-.21.49-.67.81-1.18.81M6.55 1.12c-.06 0-.12.06-.14.12s0 .15.05.21c.03.03.06.04.1.05 2.54.27 4.58 2.28 4.85 4.78l.05 33.31c0 4.13 3.36 7.48 7.49 7.48h34.76c.07 0 .12-.07.15-.12.02-.06 0-.15-.05-.2 0 0-.06-.05-.1-.05-2.76-.28-4.93-2.67-4.93-5.45l.04-32.64c0-4.13-3.36-7.49-7.49-7.49z"/><path fill="#fff" d="M46.73 24.1S39.3 34.69 30.14 34.69 13.55 24.1 13.55 24.1s7.43-10.59 16.59-10.59S46.73 24.1 46.73 24.1"/><path fill="#006d68" d="M30.14 29.82a5.82 5.82 0 1 0 0-11.64 5.82 5.82 0 0 0 0 11.64"/></g><defs><clipPath id="a"><path fill="#fff" d="M0 0h55v55H0z"/></clipPath></defs></svg>
